svg/fluentui-system-icons/ic_fluent_cloud_sync_20_filled.svg

<svg width="20" height="20" viewBox="0 0 20 20" fill="none" xmlns="http://www.w3.org/2000/svg">
<path d="M10 2C12.8166 2 14.4145 3.92329 14.6469 6.24599L14.7179 6.24599C16.5306 6.24599 18 7.75792 18 9.62299C18 9.71829 17.9962 9.81267 17.9886 9.90598C16.9349 8.5916 15.3157 7.75 13.5 7.75C10.4928 7.75 8.02481 10.0585 7.77144 13H5.28205C3.46942 13 2 11.4881 2 9.62299C2 7.75792 3.46942 6.24599 5.28207 6.24599L5.35314 6.24599C5.58687 3.90802 7.18335 2 10 2ZM9 13.5C9 15.9853 11.0147 18 13.5 18C15.9853 18 18 15.9853 18 13.5C18 11.0147 15.9853 9 13.5 9C11.0147 9 9 11.0147 9 13.5ZM15.5 10.5C15.7761 10.5 16 10.7239 16 11V12.5C16 12.7761 15.7761 13 15.5 13H14C13.7239 13 13.5 12.7761 13.5 12.5C13.5 12.2239 13.7239 12 14 12H14.4682C14.4179 11.9722 14.3663 11.9464 14.3135 11.923C14.0682 11.8137 13.8034 11.755 13.535 11.7503C13.2665 11.7456 12.9998 11.795 12.7508 11.8956C12.5018 11.9962 12.2756 12.1459 12.0857 12.3358C11.8905 12.531 11.5739 12.531 11.3786 12.3358C11.1834 12.1405 11.1834 11.8239 11.3786 11.6287C11.6635 11.3439 12.0027 11.1193 12.3762 10.9684C12.7497 10.8175 13.1497 10.7434 13.5524 10.7505C13.9552 10.7575 14.3524 10.8456 14.7203 11.0094C14.8162 11.0521 14.9095 11.0997 15 11.1519V11C15 10.7239 15.2239 10.5 15.5 10.5ZM14.6238 16.0316C14.2503 16.1825 13.8503 16.2566 13.4476 16.2495C13.0448 16.2425 12.6476 16.1544 12.2797 15.9906C12.1838 15.9479 12.0905 15.9003 12 15.8481V16C12 16.2761 11.7761 16.5 11.5 16.5C11.2239 16.5 11 16.2761 11 16V14.5C11 14.2239 11.2239 14 11.5 14H13C13.2761 14 13.5 14.2239 13.5 14.5C13.5 14.7761 13.2761 15 13 15H12.5318C12.5821 15.0278 12.6337 15.0536 12.6865 15.077C12.9318 15.1863 13.1966 15.245 13.465 15.2497C13.7335 15.2544 14.0002 15.205 14.2492 15.1044C14.4982 15.0038 14.7244 14.8541 14.9143 14.6642C15.1095 14.469 15.4261 14.469 15.6214 14.6642C15.8166 14.8595 15.8166 15.1761 15.6214 15.3713C15.3365 15.6561 14.9973 15.8807 14.6238 16.0316Z" fill="#212121"/>
</svg>

<svg xmlns="http://www.w3.org/2000/svg" width="20" height="20"><path d="M10 2c2.817 0 4.415 1.923 4.647 4.246h.07C16.532 6.246 18 7.758 18 9.623c0 .095-.004.19-.011.283A5.75 5.75 0 0 0 7.772 13h-2.49C3.469 13 2 11.488 2 9.623c0-1.865 1.47-3.377 3.282-3.377h.071C5.587 3.908 7.183 2 10 2ZM9 13.5a4.5 4.5 0 1 0 9 0 4.5 4.5 0 0 0-9 0Zm6.5-3a.5.5 0 0 1 .5.5v1.5a.5.5 0 0 1-.5.5H14a.5.5 0 0 1 0-1h.468a1.999 1.999 0 0 0-2.383.336.5.5 0 0 1-.706-.707A3.001 3.001 0 0 1 15 11.152V11a.5.5 0 0 1 .5-.5Zm-.876 5.532A2.999 2.999 0 0 1 12 15.848V16a.5.5 0 0 1-1 0v-1.5a.5.5 0 0 1 .5-.5H13a.5.5 0 0 1 0 1h-.468a1.999 1.999 0 0 0 2.383-.336.5.5 0 0 1 .706.707c-.285.285-.624.51-.997.66Z"/></svg>
